X:1
T:Nocturne No. 2
T:Nocturne No. 2
T:Fryderyk Chopin 
C:Fryderyk Chopin
%%score { 1 | ( 2 3 ) }
L:1/8
Q:1/8=120
M:12/8
K:Eb
V:1 treble nm="Piano" snm="Pno."
V:2 bass 
V:3 bass 
V:1
"_espress. dolce" B |!p! g3- g(fg f3 e2) (B | g2!<(! c/4_d/4c/4=B/4!<)! c'2 g b3!>(! a2 g)!>)! | %3
 f3 (g2 d) e3 c3 | (Bd')(c' b/a/g/a/)!f!(c/d/ e3) z2 (B | %5
!p! g3 f/)g/Pf/=e/f/g/ f !>!_e2- e/f/Pe/d/e/f/ | %6
!<(! g/(=B/c/)(!>!_d/c/)((!>!f/=e/))(!>!a/g/)(!>!_d'/c'/g/)!<)!!>(! (b3!>)! a2) g | %7
 !trill(!Tf3{=ef} .g(gd) (_e3 c3) | (Bd')(.c' .b/.a/.g/.a/{/a}c/d/) e3- ede | %9
!p! f3 (g2 f)!pp! (f3 c3) |[Q:1/8=110] .e.e.e ed/e/f/>e/ e3 B3 | %11
[Q:1/8=120]!f! b3 =a2 g [=Af]3 [Bd]3 | %12
 [Ge]3 (.[=Ad].[Ac].[Ad][Q:1/8=110] .[FB])(.[^F=B].[=EB][Q:1/8=105] .[E_Bc].[=FAc].[_Ad]) | %13
[Q:1/8=120]!sfz!({GB)e} g2 (=A/B/ _c/B/^c/d/g/>f/) (f2 (e) e/)(f/Pe/d/e/f/ | %14
!<(! g/)[Q:1/8=115](=B/c/)(_d/c/)[Q:1/8=110](f/!<)! =e/)(a/g/)[Q:1/8=100](_d'/c'/g/[Q:1/8=120] b3!>(! a2) (g!>)! | %15
!p! !trill(!Tf3{=ef} .g)!>(!(gd)!>)!!<(! (_e3 c3)!<)! | %16
 (Bd')(^c' =c'/4=b/4=a/4_a/4f/4d/4)(!>!_c/4B/4d/4g/4f/4e/4) e3- ede | f3 g2 f f3 c3 | %18
 (4:3:4(.e.e.e.e) ed/e/f/>e/ e3!<(! B3!<)! | b3 =a2 g [=Af]3 [Bd]3 | %20
 [Ge]3 (.[=Ad].[Ac].[Ad][Q:1/8=110]!<(! .[FB])(.[^F=B].[=EB][Q:1/8=105] .[E_Bc].[=FAc].[_Ad])!<)! | %21
[Q:1/8=120]!sfz!({GB)e} g2 (=A/B/ _c/B/^c/d/g/>f/)!>(! (f2!>)! (e) e/)(f/!<(!Te/d/e/f/!<)! | %22
 g/)[Q:1/8=110](=B/c/)(!>!_d/c/)[Q:1/8=105]!<(!(!>!f/ =e/)(!>!a/g/)[Q:1/8=100](!>!_d'/c'/g/!<)![Q:1/8=120]{/g} b3 a2) (g | %23
 !trill(!Tf3{=ef} .g)(gd) (_e3 c3) | %24
 (B/.d'.^c'/.=c'/.=b/4 ._b/.=a/) !wedge!_a/4(=A/4B/4=B/4c/4^c/4d/4(3g/4f/4e/4 !>!e6) | %25
!p! e3 fef g6 |!pp! e3- e/(f/e/)(f/e/f/ g2) (!invertedturn!e (.e').d'.c') | %27
 b2 (=a _a)!pp!cd ef/Pe/d/e/{/e} (g'f'/e'/d'/c'/ | _c'b__b) (b/a/) (a/g/) (g/>f/ e6) | %29
!p! e3- (8:6:8e/(f/e/f/e/)!<(!(f/e/f/)!<)! g3 z z2 | %30
 !wedge!e(A/B/TA/G/ A/_c/e/a/e'/)z/4(f'/4 g')e'[Q:1/8=130]!8va(! [e'e'']2 [d'd''][c'=c''] | %31
 [_c'_c''][bb'][__b__b'] [aa'][gg'][dd'] [ee'] [e'e'']3 [ff'][=c'=c''] | %32
 [_c'_c'']6-[Q:1/4=160] !fermata![c'c'']6 c''/b'/=c''/=a'/ _c''/b'/=c''/a'/!<(! _c''/b'/=c''/a'/ _c''/b'/=c''/a'/[Q:1/4=140] _c''/b'/=c''/a'/ _c''/b'/=c''/a'/ _c''/b'/=c''/a'/ _c''/b'/=c''/a'/[Q:1/4=120] _c''/b'/=c''/a'/ _c''/b'/=c''/a'/ _c''/b'/=c''/a'/!<)!!>(! _c''/b'/=c''/a'/!>)![Q:1/4=100] _c''/b'/d''/=c''/[Q:1/4=80] b'/a'/_a'/g'/[Q:1/4=60] f'/d'/e'/=c'/!8va)!bacd | %33
!pp! [Ge]Bg [Ge]Bg [Ge]Bg [Ge]Bg |!ppp! [Ge]3 [ge']3 !fermata!E6 |] %35
V:2
 z | %1
!ped! .E,,([G,E][B,EG])!ped-up!!ped! .E,([A,D][_CDA])!ped-up!!ped! .E,,([G,E][B,EG])!ped-up!!ped! .D,,([G,E][B,EG])!ped-up! | %2
!ped! .C,,([G,=E][B,EG])!ped-up!!ped! .C,([G,E][CEB])!ped-up!!ped! .F,,([F,_D][B,DE])!ped-up!!ped! .F,,([F,C][A,CF])!ped-up! | %3
!ped! .B,,([F,D][B,DA])!ped-up!!ped! .=B,,([G,F][DFG])!ped-up!!ped! .C,([G,E][CEB])!ped-up!!ped! .=A,,([_G,E][CE_G])!ped-up! | %4
!ped! .B,,([F,E][B,EA])!ped-up!!ped! .B,,,([F,D][B,A])!ped-up!!ped!!>(! .E,,([G,E][B,EG])!ped-up!!ped! .E,([G,E][B,EG])!>)!!ped-up! | %5
!ped! .E,([G,E][B,EG])!ped-up!!ped! .E,([A,D][_CDA])!ped-up!!ped! .E,([G,E][B,EG])!ped-up!!ped! .D,([G,E][B,EG])!ped-up! | %6
!ped! .C,([G,=E][B,EG])!ped-up!!ped! .C,([G,E][CEB])!ped-up!!ped! .F,,([F,_D][B,DE])!ped-up!!ped! .F,,([F,C][A,CF])!ped-up! | %7
!ped! .B,,([F,D][B,DA])!ped-up!!ped! .=B,,([G,F][DFG])!ped-up!!ped! .C,([G,E][CEB])!ped-up!!ped! .=A,,([_G,E][CE_G])!ped-up! | %8
!ped! .B,,([F,E][B,EA])!ped-up!!ped! .B,,,([F,D][B,A])!ped-up!!ped! .E,,([G,E][B,EG])!ped-up!!ped! .E,([G,E][B,EG])!ped-up! | %9
!ped! .B,,([F,D][B,DA])!ped-up!!ped! .B,,([F,D][B,DA])!ped-up!!ped! .=A,,([F,C][CF])!ped-up!!ped! .A,,([F,C][CF])!ped-up! | %10
!ped! .A,,([E,C][A,CE])!ped-up! A,,,[E,_C][A,CE]!ped! .E,,([G,E][B,EG])!ped-up!!ped! .E,([G,E][B,EG])!ped-up! | %11
!ped! .=E,,([=E,_D][B,DG])!ped-up!!ped! E,,[E,C][B,CG]!ped-up!!ped! .F,,([F,_E][CE=A])!ped-up!!ped! .G,,([G,=D][B,DB])!ped-up! | %12
!ped! .C,,([G,E][CEG])!ped-up!!ped! .F,,([F,E][CEF])!ped-up! .[B,D](.[=A,^D].^G, .=G,.[=F,C_E].[B,F]) | %13
!ped! .E,,([G,E][B,EG])!ped-up!!ped! .E,([A,D][B,DA])!ped-up!!ped! .E,([G,E][B,EG])!ped-up!!ped! .D,([G,E][B,EG])!ped-up! | %14
!ped! .C,([G,=E][B,EG])!ped-up!!ped! .C,([G,E][CEB])!ped-up!!ped! .F,,([F,_D][B,DE])!ped-up!!ped! .F,,([F,C][A,CF])!ped-up! | %15
!ped! .B,,([F,D][B,DA])!ped-up!!ped! .=B,,([G,F][DFG])!ped-up!!ped! .C,([G,E][CEB])!ped-up!!ped! .=A,,([_G,E][CE_G])!ped-up! | %16
!ped! .B,,([F,E][B,EA])!ped-up!!ped! .B,,,([F,D][B,A])!ped-up!!ped! .E,,([G,E][B,EG])!ped-up!!ped! .E,([G,E][B,EG])!ped-up! | %17
!ped! .B,,([F,D][B,DA])!ped-up!!ped! .B,,([F,D][B,DA])!ped-up!!ped! .=A,,([F,C][CF])!ped-up!!ped! .A,,([F,C][CF])!ped-up! | %18
!ped! .A,,([E,C][A,CE])!ped-up! A,,,[E,_C][A,CE]!ped! .E,,([G,E][B,EG])!ped-up!!ped! .E,([G,E][B,EG])!ped-up! | %19
!ped! .=E,,([=E,_D][B,DG])!ped-up!!ped! E,,[E,C][B,CG]!ped-up!!ped! .F,,([F,_E][CE=A])!ped-up!!ped! .G,,([G,=D][B,DB])!ped-up! | %20
!ped! .C,,([G,E][CEG])!ped-up!!ped! .F,,([F,E][CEF])!ped-up! .[B,D](.[=A,^D].^G, .=G,.[=F,C_E].[B,F]) | %21
!ped! .E,,([G,E][B,EG])!ped-up!!ped! .E,([A,D][B,DA])!ped-up!!ped! .E,([G,E][B,EG])!ped-up!!ped! .D,([G,E][B,EG])!ped-up! | %22
!ped! .C,([G,=E][B,EG])!ped-up!!ped! .C,([G,E][CEB])!ped-up!!ped! .F,,([F,_D][B,DE])!ped-up!!ped! .F,,([F,C][A,CF])!ped-up! | %23
!ped! .B,,([F,D][B,DA])!ped-up!!ped! .=B,,([G,F][DFG])!ped-up!!ped! .C,([G,E][CEB])!ped-up!!ped! .=A,,([_G,E][CE_G])!ped-up! | %24
!ped! .B,,([F,E][B,EA])!ped-up!!ped! .B,,,([F,D][B,A])!ped-up!!ped! .E,,([G,E][B,EG])!ped-up!!ped! .E,([G,E][B,EG])!ped-up! | %25
!ped! .E,,([A,_CE][CEA]) .E,([A,CE][CEA])!ped-up!!ped! .E,,([G,E][B,EG]) .E,([G,E][B,EG])!ped-up! | %26
!ped! .E,,([A,_CE][CEA]) .E,([A,CE][CEA])!ped-up!!ped! .E,,([G,E][B,EG]) .E,([G,E][B,EG])!ped-up! | %27
 .E,([F,D][B,A]) .E,([F,D][B,A]) .E,([G,E][B,G]) .=A,,([F,E][CEF]) | %28
!ped! .B,,([F,E][B,EA])!ped-up!!ped! .B,,,([F,D][B,A])!ped-up!!ped! .E,,([G,E][B,EG])!ped-up!!ped! .E,([G,E][B,EG])!ped-up! | %29
 A,,,([E,A,_C][A,CE]) .[CEA]([A,CE][E,A,C]) .E,,([G,E][B,EG]) .E,([G,E][B,EG]) | %30
 A,,,([E,A,_C][A,CE]) .[E,A,C]([A,CE][E,A,C]) .E,,([G,E][B,EG]) .=A,,([F,E][=CEF]) | %31
!ped! .B,,([F,B,E][B,EA])!ped-up!!ped! .=B,,([G,F][DFG])!ped-up!!ped! .C,([G,E][CG])!ped-up!!ped! .=A,,[CE][CEF]!ped-up! | %32
!ped! (8:6:8B,,,B,,F,A, DB,[K:treble]FA !fermata!d6 x2 x32 |[K:bass] x B,2 x B,2 x B,2 x B,2 | %34
 [E,B,]3[K:treble] [EB]3[K:bass] !fermata![E,,B,,G,]6!ped-up! |] %35
V:3
 x | x12 | x12 | x12 | x12 | x12 | x12 | x12 | x12 | x12 | x12 | x12 | x12 | x12 | x12 | x12 | %16
 x12 | x12 | x12 | x12 | x12 | x12 | x12 | x12 | x12 | x12 | x12 | x12 | x12 | x12 | x12 | %31
 x10 F,2 | x9/2[K:treble] x83/2 |[K:bass] E,,B,B,, E,B,B,, E,,B,B,, E,B,B,, | %34
 x3[K:treble] x3[K:bass] x6 |] %35

